X:1
T:The Well-Tempered Clavier Book I - XI
T:BWV 856    (A = 415 Hz)
T:J. S. Bach
%%score { ( 1 3 ) | 2 }
L:1/8
M:12/8
K:F
V:1 treble 
V:3 treble 
V:2 bass 
V:1
"^Praeludium" f/c/A/G/A/c/ F/A/c/_e/d/c/ d/B/F/E/F/B/ D/F/A/c/B/A/ | %1
 B/G/E/D/E/G/ C/E/G/B/A/G/ A/G/F/E/F/A/ C/E/F/A/G/F/ | %2
 A/4=B/4c/4B/4c/4B/4c/4B/4c/4B/4c/4B/4 c/4B/4c/4B/4c/4B/4c/4B/4c/4B/4c/4B/4 c/G/E/D/E/G/ C/E/G/_B/A/G/ | %3
 d/4^c/4=B/4c/4d/4c/4d/4c/4d/4c/4d/4c/4 d/4c/4d/4c/4d/4c/4d/4c/4d/4c/4d/4c/4 d/A/F/E/F/A/ D/F/A/=c/_B/A/ | %4
 B/G/E/D/E/G/ C/E/G/B/A/G/ A/F/D/^C/D/F/ B,/D/F/A/G/F/ | G/E/^C/=B,/C/E/ A,/C/E/G/F/E/ FAd AFD | %6
 GBd BGD G^ce cGE | d/A/F/E/F/A/ D/F/A/c/B/A/ f/d/B/A/B/d/ F/B/d/f/e/d/ | %8
 a/4^g/4f/4g/4a/4g/4a/4g/4a/4g/4a/4g/4 a/4g/4a/4g/4a/4g/4a/4g/4a/4g/4a/4g/4 a/e/^c/=B/c/e/ A/c/e/=g/^f/e/ | %9
 e/4^f/4g/4f/4g/4f/4g/4f/4g/4f/4g/4f/4 g/4f/4g/4f/4g/4f/4g/4f/4g/4f/4g/4f/4 g/d/=B/A/B/d/ G/B/d/=f/_e/d/ | %10
 _e/c/A/G/A/c/ F/A/c/e/d/c/ d/B/G/^F/G/B/ _E/G/B/d/c/B/ | %11
 c/A/^F/E/F/A/ D/F/A/c/B/A/ A/4B/4c/4B/4c/4B/4c/4B/4c/4B/4c/4B/4 c/4B/4c/4B/4c/4B/4c/4B/4c/4B/4c/4B/4 | %12
 c/4B/4c/4B/4c/4B/4c/4B/4c/4B/4c/4B/4 c/4B/4c/4B/4c/4B/4c/4B/4c/4B/4c/4B/4 A6- | %13
 A/A/F/E/F/A/ D/F/A/c/B/A/ G/d/B/A/B/d/ G/B/d/f/e/d/ | %14
 e/g/e/d/e/g/ c/e/g/b/a/g/ c'/a/f/e/f/a/ d/f/a/c'/b/a/ | %15
 b/g/e/d/e/g/ c/e/g/b/a/g/ a/f/c/B/c/f/ A/c/_e/g/f/e/ | %16
 e/4d/4e/4d/4e/4d/4e/4d/4e/4d/4e/4d/4 e/4d/4c/B/A/G/F/ Bge cBg | %17
 A/G/F/E/F/A/ D/F/D/B,/G,/E/ F/B,/A,/G,/A,/C/ F,2 z |[M:3/8] z z"^Fuga" z | z3 | z3 | z3 | z z F | %23
 AGF | G=B,/C/D/E/ | FG/F/E/D/ | E/D/C/D/E/F/ | GFE | F/E/D/E/F/G/ | A/c/B/A/G/F/ | %30
 F/4E/4F/4E/4F/4E/4F/4E/4F/4E/4F/4E/4 | F A2 | G c2 | =B e2 | d3 | d/d/cc | dcB | cE/F/G/A/ | %38
 Bc/B/A/G/ | A/G/F/G/A/B/ | c/B/A/B/c/d/ | e/g/f/e/d/c/ | c/4=B/4c/4B/4c/4B/4c/4B/4c/4B/4c/4B/4 | %43
 c/d/e/f/g/a/ | B/c/d/e/f/g/ | a/c'/b/a/g/f/ | ff/4e/4f/4e/4f/4e/4f/4e/4 | f z z | g3- | %49
 g/g/f/e/d/c/ | f3- | f/f/e/d/^c/=B/ | e3- | eAd | ^c2 a | bag | a^c/d/e/f/ | ga/g/f/e/ | %58
 f/a/g/f/e/d/ | ^c3- | c/d/4=c/4B/A/G/F/ | BAG | A3- | A/B/F/4E/4F/4E/4F/4E/4D/ | D/E/F/G/A/B/ | %65
 c/B/c/d/_e/d/ | G/8^F/8G/8F/8E/D/E/F/G/ | A3- | A/G/A/B/c/d/ | _edc | d^F/G/A/B/ | c/B/d/c/B/A/ | %72
 B/^F/G/A/B/^c/ | d/g/c/4B/4c/4B/4A/G/ | G B2- | B/G/c/B/A/G/ | A3- | A/F/B/A/G/F/ | EFG | ABc | %80
 def | g3- | g/c/f/_e/d/c/ | d/c/_e/d/c/B/ | cE/F/G/A/ | B/A/c/B/A/G/ | A/G/B/A/c/B/ | %87
 d/c/e/d/f/e/ | g/A/B/G/A- | A/B<GF/ | F2 z |] %91
V:2
 F,A,C A,F,A, B,DB, F,,2 z | F,G,B, G,E,C, F,A,F, F,,2 z | %2
 F,/D,/=B,,/A,,/B,,/D,/ G,,/B,,/D,/F,/E,/D,/ D,/4E,/4F,/4E,/4F,/4E,/4F,/4E,/4F,/4E,/4F,/4E,/4 F,/4E,/4F,/4E,/4F,/4E,/4F,/4E,/4F,/4E,/4F,/4E,/4 | %3
 G,/E,/^C,/=B,,/C,/E,/ A,,/C,/E,/G,/F,/E,/ E,/4F,/4G,/4F,/4G,/4F,/4G,/4F,/4G,/4F,/4G,/4F,/4 G,/4F,/4G,/4F,/4G,/4F,/4G,/4F,/4G,/4F,/4G,/4F,/4 | %4
 G,B,G, E,C,E, F,A,F, D,B,,D, | E,G,E, ^C,A,,C, D,/A,,/F,,/E,,/F,,/A,,/ D,,/F,,/A,,/=C,/B,,/A,,/ | %6
 D,/B,,/G,,/^F,,/G,,/B,,/ D,,/G,,/B,,/D,/^C,/=B,,/ C,/_B,,/G,,/F,,/G,,/B,,/ D,,/G,,/C,/E,/D,/C,/ | %7
 D,F,A, F,D,F, D,,F,,B,, D,2 z | %8
 D/=B,/^G,/^F,/G,/B,/ E,/G,/B,/D/^C/B,/ B,/4C/4D/4C/4D/4C/4D/4C/4D/4C/4D/4C/4 D/4C/4D/4C/4D/4C/4D/4C/4D/4C/4D/4C/4 | %9
 C/A,/^F,/E,/F,/A,/ D,/F,/A,/C/=B,/A,/ A,/4B,/4C/4B,/4C/4B,/4C/4B,/4C/4B,/4C/4B,/4 C/4B,/4C/4B,/4C/4B,/4C/4B,/4C/4B,/4C/4B,/4 | %10
 C_EC A,F,A, B,DB, G,_E,G, | A,CA, ^F,D,F, G,/D,/B,,/A,,/B,,/D,/ G,,/B,,/D,/=F,/E,/D,/ | %12
 C,/G,,/E,,/D,,/E,,/G,,/ C,,/G,,/C,/E,/D,/C,/ F,/C,/A,,/G,,/A,,/C,/ F,,/C,/F,/A,/G,/F,/ | %13
 C/4B,/4C/4B,/4C/4B,/4C/4B,/4C/4B,/4C/4B,/4 C/4B,/4C/4B,/4C/4B,/4C/4B,/4C/4B,/4C/4B,/4 C/4B,/4C/4B,/4C/4B,/4C/4B,/4C/4B,/4C/4B,/4 C/4B,/4C/4B,/4C/4B,/4C/4B,/4C/4B,/4C/4B,/4 | %14
 C/4B,/4C/4B,/4C/4B,/4C/4B,/4C/4B,/4C/4B,/4 C/4B,/4C/4B,/4C/4B,/4C/4B,/4C/4B,/4C/4B,/4 A,CA, F,D,F, | %15
 G,B,G, E,C,E, F,/C,/A,,/G,,/A,,/C,/ F,,/A,,/C,/_E,/D,/C,/ | %16
 F,/D,/B,,/A,,/B,,/D,/ F,,/B,,/D,/F,/E,/D,/ E,/C,/B,,/A,,/B,,/E,/ G,,/B,,/E,/G,/F,/E,/ | %17
 F,A,,D, C,/4B,,/4C,/4B,,/4C,/4B,,/4A,,/4B,,/4C, F,,2 z z/ C,/A,,/C,/F,, |[M:3/8] z z z | z3 | z3 | %21
 z3 | z3 | z3 | z3 | z3 | z3 | z z C, | D,C,B,, | C,E,,/F,,/G,,/A,,/ | B,,C,/B,,/A,,/G,,/ | %31
 A,,/G,,/F,,/G,,/A,,/B,,/ | C,/=B,,/A,,/B,,/C,/D,/ | E,/G,/F,/E,/D,/C,/ | %34
 C,/4=B,,/4C,/4B,,/4C,/4B,,/4C,/4B,,/4C,/4B,,/4C,/4B,,/4 | C,D,/E,/F, | B,3 | A,/C/B,/A,/G,/F,/ | %38
 F,/4E,/4F,/4E,/4F,/4E,/4F,/4E,/4F,/4E,/4F,/4E,/4 | F,2 z | z3 | z3 | z3 | z2 C | DCB, | %45
 CE,/F,/G,/A,/ | B,C/B,/A,/G,/ | A,/C/B,/A,/G,/F,/ | %48
 F,/4E,/4F,/4E,/4F,/4E,/4F,/4E,/4F,/4E,/4F,/4E,/4 | F,G,A, | D,2 z | E,F,G, | ^C,2 ^C | DCB, | %54
 A,3- | A,3- | A,3- | A,3- | A,2 A, | B,A,G, | A,^C,/D,/E,/F,/ | G,A,/G,/F,/E,/ | F,>G,F,/E,/ | %63
 D,/G,/A,A,, | D,,2 D, | _E,D,C, | D,^F,,/G,,/A,,/B,,/ | C,/B,,/D,/C,/B,,/A,,/ | B,, z z | ^F, z2 | %70
 G, z2 | _E, z z | D, z2 | z/ C,/ D,D, | G,,A,,B,, | C,D,E, | F,G,A, | B,3- | B,/G,/C/B,/A,/G,/ | %79
 F,/C,/F,/_E,/D,/C,/ | B,,/C,/B,,/A,,/G,,/F,,/ | E,,2 z | F,,G,,A,, | B,,2 z | A,,2 z | G,,2 z | %86
 F,,G,,A,, | B,,C,D, | E,C,F, | B,,C,C,, | !fermata!F,,2 z |] %91
V:3
 x12 | x12 | x12 | x12 | x12 | x12 | x12 | x12 | x12 | x12 | x12 | x12 | %12
 E6 F/4_E/4D/4E/4F/4E/4F/4E/4F/4E/4F/4E/4 F/4E/4F/4E/4F/4E/4F/4E/4F/4E/4F/4E/4 | D z z2 z8 | x12 | %15
 x12 | x12 | x12 |[M:3/8] x2[I:staff +1] C | DCB, | CE,/F,/G,/A,/ | B,C/B,/A,/G,/ | %22
 A,/G,/F,/G,/A,/B,/ | C/B,/A,/B,/C/D/ | E/G/F/E/D/C/ | %25
 C/4=B,/4C/4B,/4C/4B,/4C/4B,/4C/4B,/4C/4B,/4 | CB,A, | B,/A,/G,/A,/[I:staff -1]B,/C/ | A,2 D | %29
 EGC | C3- | C2 F | E2 A | G2 c- | c/c/B/A/G/F/ | E>BA/G/ | F/E/[I:staff +1]D/E/[I:staff -1]F/G/ | %37
 A z z | x3 | z z F | AGF | G=B,/C/D/E/ | FG/F/E/D/ | E/D/C/D/E/C/ | D2 z | z z c | dcB | %47
 cE/F/G/A/ | Bc/B/A/G/ | A3- | AB/A/G/F/ | G3- | GA/G/F/E/ | F/E/F/G/A/G/ | %54
 A/B/A/G/[I:staff +1]F/E/ | D/^C/D/F/E/D/ | ^C[I:staff -1] z A | BAG | A[I:staff +1]^C/D/E/F/ | %59
 G[I:staff -1]A/G/F/E/ | F2 z | ^C3- | C/A,/B,/^C/D/E/ | F/D/ ^C2 | D2 z | x3 | z z D | _EDC | %68
 D[I:staff +1]^F,/G,/A,/B,/ |[I:staff -1] C/B,/D/C/B,/A,/ | B,/D/C/B,/A,/G,/ | %71
[I:staff +1] ^F,[I:staff -1] z z |[I:staff +1] G,/A,/B,/C/D/A,/ | A,G,^F, | %74
 G,/[I:staff -1]D/G/F/E/D/ | E3 | z/ C/F/_E/D/C/ | D3 | CDE | FGA | B3- | B/G/c/B/A/G/ | A3- | %83
 A[I:staff +1]E,G,- | G,/F,/B,/A,/G,/F,/ | G,B,,/C,/D,/E,/ | F,3- | F,2 B,- | B,[I:staff -1]EF- | %89
 F E2 | !fermata!F2 z |] %91

